X: 29672
T: Norwood Junction
R: reel
M: 4/4
K: Aminor
aged eage|d2BG AGED|EA(3AAA Be(3eee|fedc BGBd|
eaag eage|d2BG AGED|EA(3AAA Bdge|1 dBGB A4:|2 dBGB A3G||
EA(3AAA Be(3eee|deBe dcAG|EA(3AAA Bdge|dBGB A3G|
EA(3AAA Be(3eee|deBe dcAG|EA(3AAA Bdge|dBGB A4||

